images/class_icons/hollowpact.svg

<svg height="400" viewBox="0 0 400 400" width="400" xmlns="http://www.w3.org/2000/svg"><path d="m214.624 3.517c-1.893.32-5.377.788-7.742 1.04-2.366.252-4.882.674-5.592.937-.709.263-2.258.648-3.441.857-34.342 6.059-69.792 36.493-80.894 69.45-4.337 12.873-6.313 34.481-4.004 43.769.177.71.656 2.839 1.066 4.731.899 4.158.856 3.993 1.446 5.591.262.71 1.156 3.226 1.988 5.592 10.025 28.534 36.929 52.343 69.437 61.45 8.635 2.419 10.027 1.476 3.203-2.17-46.303-24.74-59.803-84.514-28.559-126.451 36.043-48.376 110.776-56.517 155.132-16.899l4.557 4.07-4.549-6.609c-20.891-30.351-67.708-51.16-102.048-45.358m-85.592 18.851c-1.656.377-6.098 1.151-9.871 1.72-31.277 4.72-59.952 26.346-78.697 59.353-2.016 3.548-3.755 6.839-3.865 7.312-.883 3.782-1.638 5.591-2.334 5.591-.45 0-.622.318-.381.707.24.389-.101 1.744-.759 3.011-.657 1.267-.977 2.304-.711 2.304.267 0 .003.58-.586 1.29s-.857 1.29-.596 1.29c.262 0 .095 1.258-.371 2.796-12.825 42.314 3.988 94.87 37.277 116.524 2.03 1.321 3.819 2.691 3.977 3.046.157.355.783.645 1.389.645.607 0 2.123.802 3.369 1.783 1.247.98 2.267 1.501 2.267 1.157s.774.075 1.72.931 1.721 1.293 1.721.971 1.258.098 2.795.933c1.538.834 3.183 1.557 3.656 1.606 1.429.147 5.966 1.427 6.846 1.931.453.26 1.624.558 2.602.662.979.105 4.066.613 6.862 1.13 28.313 5.234 63.633-7.181 86.461-30.391 6.198-6.301 5.694-7.137-1.623-2.693-17.542 10.657-47.999 15.612-64.589 10.509-2.602-.8-5.311-1.628-6.021-1.839-4.03-1.201-9.179-3.302-10.233-4.177-.668-.554-1.371-.873-1.562-.708-.695.6-11.639-6.338-17.092-10.836-29.717-24.513-40.989-78.247-23.799-113.454.43-.881 1.428-2.89 2.218-4.466.789-1.576 1.436-3.415 1.436-4.086 0-.672.292-1.221.65-1.221.357 0 1.54-1.94 2.628-4.311 8.302-18.098 34.046-40.029 55.053-46.9 2.446-.8 4.234-1.798 3.975-2.219-.26-.42-.546-.724-.637-.675-.09.049-1.519.397-3.175.774m135.484 41.315c-34.825 7.319-60.396 31.715-69.848 66.64-3.508 12.961-3.524 38.542-.033 52.34 4.019 15.886 4.62 15.604 5.216-2.448 2.824-85.568 108.553-112.259 165.74-41.84 18.891 23.261 29.378 65.006 21.522 85.668-2 5.26.907.797 3.433-5.271 14.185-34.074 7.94-78.852-15.14-108.559-2.323-2.99-4.61-6.012-5.083-6.717-.474-.705-3.876-4.232-7.562-7.84-27.236-26.659-65.018-38.955-98.245-31.973m13.764 92.126c-25.609 1.341-48.123 11.749-67.415 31.166-8.82 8.877-8.725 10.306.318 4.791 19.724-12.029 45.209-16.57 64.946-11.573 1.183.3 2.928.654 3.879.788.951.133 2.693.758 3.871 1.389s2.143 1.045 2.143.922c0-.269 3.486 1.143 9.779 3.961 20.853 9.34 38.21 31.716 45.535 58.705 2.902 10.691 3.342 37.812.769 47.375-.828 3.076-1.659 6.172-1.847 6.882s-.416 1.484-.506 1.72c-.091.237-.219.818-.285 1.291s-.564 1.634-1.107 2.58c-.542.947-1.024 2.011-1.071 2.366s-.113.742-.149.86c-.035.119-.212.993-.393 1.943-3.606 18.931-32.636 49.933-55.783 59.571l-6.986 2.909 5.592-.494c23.188-2.049 50.713-17.297 67.401-37.337 7.15-8.587 18.443-26.531 19.036-30.248.037-.236 1.091-3.139 2.34-6.451 19.226-50.959-.14-111.188-42.643-132.624-2.428-1.224-4.698-2.659-5.046-3.188-.347-.529-.638-.663-.645-.297-.007.365-.981.03-2.164-.745-1.182-.775-2.15-1.174-2.15-.887 0 .288-1.452-.017-3.226-.677-7.62-2.833-6.893-2.631-12.688-3.52-1.893-.29-5.183-.796-7.312-1.123s-8.516-.352-14.193-.055m-266.55 20.32c-9.981 19.395-12.37 47.11-6.173 71.613 3.123 12.345 6.714 20.412 16.849 37.849.687 1.183 1.734 2.46 2.325 2.839.592.378 1.075 1.018 1.075 1.422 0 4.292 23.608 25.125 37.42 33.022 40.016 22.881 95.244 17.005 119.99-12.766 1.18-1.42 3.213-3.675 4.518-5.013 1.306-1.337 2.374-2.716 2.374-3.063 0-.348.677-1.399 1.505-2.336 17.024-19.272 22.499-64.786 11.244-93.487-1.463-3.732-1.931-2.055-1.693 6.078.725 24.856-9.054 49.374-25.999 65.18-7.614 7.102-11.582 10.365-12.196 10.029-.248-.135-1.113.419-1.924 1.231-4.577 4.582-23.182 10.993-35.504 12.233-34.394 3.462-67.733-11.552-91.132-41.041-1.183-1.491-2.865-3.582-3.737-4.648-14.563-17.788-24.59-62.158-17.885-79.142.514-1.301.76-2.366.547-2.366s-.934 1.065-1.604 2.366m193.001 24.56c0 .248 3 2.182 6.667 4.298 21.061 12.152 40.429 35.615 42.564 51.562.171 1.271.583 2.583.916 2.917.333.333.606 1.677.606 2.987s.403 3.441.896 4.737c2.643 6.953.398 30.491-4.042 42.377-9.847 26.357-39.937 54.179-63.842 59.029-.77.156-2.487.704-3.816 1.218-2.285.884-4.792 1.374-11.777 2.304-1.656.22-5.185.785-7.843 1.255-24.501 4.334-58.884-5.814-78.383-23.134-3.827-3.399-4.26-3.614-2.872-1.422 16.039 25.323 45.477 42.823 78.776 46.831 9.934 1.196 27.015 1.114 30.107-.145.71-.289 3.372-.77 5.916-1.069 56.723-6.667 103.568-70.332 89.104-121.101-.64-2.247-.944-4.086-.675-4.086s.118-.484-.336-1.075-1.739-3.591-2.855-6.667c-7.588-20.908-27.828-41.745-50.907-52.407-9.675-4.47-28.204-9.994-28.204-8.409" fill-rule="evenodd"/></svg>

<svg id="svg" xmlns="http://www.w3.org/2000/svg" xmlns:xlink="http://www.w3.org/1999/xlink" width="400" height="400" viewBox="0, 0, 400,400"><g id="svgg"><path id="path0" d="M214.624 3.517 C 212.731 3.837,209.247 4.305,206.882 4.557 C 204.516 4.809,202.000 5.231,201.290 5.494 C 200.581 5.757,199.032 6.142,197.849 6.351 C 163.507 12.410,128.057 42.844,116.955 75.801 C 112.618 88.674,110.642 110.282,112.951 119.570 C 113.128 120.280,113.607 122.409,114.017 124.301 C 114.916 128.459,114.873 128.294,115.463 129.892 C 115.725 130.602,116.619 133.118,117.451 135.484 C 127.476 164.018,154.380 187.827,186.888 196.934 C 195.523 199.353,196.915 198.410,190.091 194.764 C 143.788 170.024,130.288 110.250,161.532 68.313 C 197.575 19.937,272.308 11.796,316.664 51.414 L 321.221 55.484 316.672 48.875 C 295.781 18.524,248.964 -2.285,214.624 3.517 M129.032 22.368 C 127.376 22.745,122.934 23.519,119.161 24.088 C 87.884 28.808,59.209 50.434,40.464 83.441 C 38.448 86.989,36.709 90.280,36.599 90.753 C 35.716 94.535,34.961 96.344,34.265 96.344 C 33.815 96.344,33.643 96.662,33.884 97.051 C 34.124 97.440,33.783 98.795,33.125 100.062 C 32.468 101.329,32.148 102.366,32.414 102.366 C 32.681 102.366,32.417 102.946,31.828 103.656 C 31.239 104.366,30.971 104.946,31.232 104.946 C 31.494 104.946,31.327 106.204,30.861 107.742 C 18.036 150.056,34.849 202.612,68.138 224.266 C 70.168 225.587,71.957 226.957,72.115 227.312 C 72.272 227.667,72.898 227.957,73.504 227.957 C 74.111 227.957,75.627 228.759,76.873 229.740 C 78.120 230.720,79.140 231.241,79.140 230.897 C 79.140 230.553,79.914 230.972,80.860 231.828 C 81.806 232.684,82.581 233.121,82.581 232.799 C 82.581 232.477,83.839 232.897,85.376 233.732 C 86.914 234.566,88.559 235.289,89.032 235.338 C 90.461 235.485,94.998 236.765,95.878 237.269 C 96.331 237.529,97.502 237.827,98.480 237.931 C 99.459 238.036,102.546 238.544,105.342 239.061 C 133.655 244.295,168.975 231.880,191.803 208.670 C 198.001 202.369,197.497 201.533,190.180 205.977 C 172.638 216.634,142.181 221.589,125.591 216.486 C 122.989 215.686,120.280 214.858,119.570 214.647 C 115.540 213.446,110.391 211.345,109.337 210.470 C 108.669 209.916,107.966 209.597,107.775 209.762 C 107.080 210.362,96.136 203.424,90.683 198.926 C 60.966 174.413,49.694 120.679,66.884 85.472 C 67.314 84.591,68.312 82.582,69.102 81.006 C 69.891 79.430,70.538 77.591,70.538 76.920 C 70.538 76.248,70.830 75.699,71.188 75.699 C 71.545 75.699,72.728 73.759,73.816 71.388 C 82.118 53.290,107.862 31.359,128.869 24.488 C 131.315 23.688,133.103 22.690,132.844 22.269 C 132.584 21.849,132.298 21.545,132.207 21.594 C 132.117 21.643,130.688 21.991,129.032 22.368 M264.516 63.683 C 229.691 71.002,204.120 95.398,194.668 130.323 C 191.160 143.284,191.144 168.865,194.635 182.663 C 198.654 198.549,199.255 198.267,199.851 180.215 C 202.675 94.647,308.404 67.956,365.591 138.375 C 384.482 161.636,394.969 203.381,387.113 224.043 C 385.113 229.303,388.020 224.840,390.546 218.772 C 404.731 184.698,398.486 139.920,375.406 110.213 C 373.083 107.223,370.796 104.201,370.323 103.496 C 369.849 102.791,366.447 99.264,362.761 95.656 C 335.525 68.997,297.743 56.701,264.516 63.683 M278.280 155.809 C 252.671 157.150,230.157 167.558,210.865 186.975 C 202.045 195.852,202.140 197.281,211.183 191.766 C 230.907 179.737,256.392 175.196,276.129 180.193 C 277.312 180.493,279.057 180.847,280.008 180.981 C 280.959 181.114,282.701 181.739,283.879 182.370 C 285.057 183.001,286.022 183.415,286.022 183.292 C 286.022 183.023,289.508 184.435,295.801 187.253 C 316.654 196.593,334.011 218.969,341.336 245.958 C 344.238 256.649,344.678 283.770,342.105 293.333 C 341.277 296.409,340.446 299.505,340.258 300.215 C 340.070 300.925,339.842 301.699,339.752 301.935 C 339.661 302.172,339.533 302.753,339.467 303.226 C 339.401 303.699,338.903 304.860,338.360 305.806 C 337.818 306.753,337.336 307.817,337.289 308.172 C 337.242 308.527,337.176 308.914,337.140 309.032 C 337.105 309.151,336.928 310.025,336.747 310.975 C 333.141 329.906,304.111 360.908,280.964 370.546 L 273.978 373.455 279.570 372.961 C 302.758 370.912,330.283 355.664,346.971 335.624 C 354.121 327.037,365.414 309.093,366.007 305.376 C 366.044 305.140,367.098 302.237,368.347 298.925 C 387.573 247.966,368.207 187.737,325.704 166.301 C 323.276 165.077,321.006 163.642,320.658 163.113 C 320.311 162.584,320.020 162.450,320.013 162.816 C 320.006 163.181,319.032 162.846,317.849 162.071 C 316.667 161.296,315.699 160.897,315.699 161.184 C 315.699 161.472,314.247 161.167,312.473 160.507 C 304.853 157.674,305.580 157.876,299.785 156.987 C 297.892 156.697,294.602 156.191,292.473 155.864 C 290.344 155.537,283.957 155.512,278.280 155.809 M11.730 176.129 C 1.749 195.524,-0.640 223.239,5.557 247.742 C 8.680 260.087,12.271 268.154,22.406 285.591 C 23.093 286.774,24.140 288.051,24.731 288.430 C 25.323 288.808,25.806 289.448,25.806 289.852 C 25.806 294.144,49.414 314.977,63.226 322.874 C 103.242 345.755,158.470 339.879,183.216 310.108 C 184.396 308.688,186.429 306.433,187.734 305.095 C 189.040 303.758,190.108 302.379,190.108 302.032 C 190.108 301.684,190.785 300.633,191.613 299.696 C 208.637 280.424,214.112 234.910,202.857 206.209 C 201.394 202.477,200.926 204.154,201.164 212.287 C 201.889 237.143,192.110 261.661,175.165 277.467 C 167.551 284.569,163.583 287.832,162.969 287.496 C 162.721 287.361,161.856 287.915,161.045 288.727 C 156.468 293.309,137.863 299.720,125.541 300.960 C 91.147 304.422,57.808 289.408,34.409 259.919 C 33.226 258.428,31.544 256.337,30.672 255.271 C 16.109 237.483,6.082 193.113,12.787 176.129 C 13.301 174.828,13.547 173.763,13.334 173.763 C 13.121 173.763,12.400 174.828,11.730 176.129 M204.731 200.689 C 204.731 200.937,207.731 202.871,211.398 204.987 C 232.459 217.139,251.827 240.602,253.962 256.549 C 254.133 257.820,254.545 259.132,254.878 259.466 C 255.211 259.799,255.484 261.143,255.484 262.453 C 255.484 263.763,255.887 265.894,256.380 267.190 C 259.023 274.143,256.778 297.681,252.338 309.567 C 242.491 335.924,212.401 363.746,188.496 368.596 C 187.726 368.752,186.009 369.300,184.680 369.814 C 182.395 370.698,179.888 371.188,172.903 372.118 C 171.247 372.338,167.718 372.903,165.060 373.373 C 140.559 377.707,106.176 367.559,86.677 350.239 C 82.850 346.840,82.417 346.625,83.805 348.817 C 99.844 374.140,129.282 391.640,162.581 395.648 C 172.515 396.844,189.596 396.762,192.688 395.503 C 193.398 395.214,196.060 394.733,198.604 394.434 C 255.327 387.767,302.172 324.102,287.708 273.333 C 287.068 271.086,286.764 269.247,287.033 269.247 C 287.302 269.247,287.151 268.763,286.697 268.172 C 286.243 267.581,284.958 264.581,283.842 261.505 C 276.254 240.597,256.014 219.760,232.935 209.098 C 223.260 204.628,204.731 199.104,204.731 200.689 " stroke="none" fill="#000000" fill-rule="evenodd"></path></g></svg>
